icons/rural_post_alt_fill.svg

<svg width="48" height="48" viewBox="0 0 48 48" fill="none" xmlns="http://www.w3.org/2000/svg">
<path fill-rule="evenodd" clip-rule="evenodd" d="M6.17198 21.1022C5.72268 23.0696 6.52981 24.9772 7.99986 26.0808V42.0001H11.9999V29.0002H19.9999V42.0001H39.9999V26.0775C41.4671 24.9735 42.2722 23.0677 41.8234 21.1022L40.7101 16.2275C40.5525 15.5375 39.9388 15.0481 39.231 15.0481H30.9999V10.0481C30.9999 7.83896 29.209 6.0481 26.9999 6.0481H20.9999C18.7908 6.0481 16.9999 7.83896 16.9999 10.0481V15.0481H8.76435C8.05658 15.0481 7.44284 15.5375 7.28526 16.2275L6.17198 21.1022ZM8.12178 21.5475L9.14935 17.0481H13.7761V22.185C13.7761 23.7662 12.4943 25.0481 10.913 25.0481C9.07448 25.0481 7.71244 23.3399 8.12178 21.5475ZM15.9491 17.0481H17.1259C17.57 18.7733 19.1361 20.0481 20.9999 20.0481H22.9112V21.5671C22.9112 23.4896 21.3527 25.0481 19.4302 25.0481C17.5076 25.0481 15.9491 23.4896 15.9491 21.5671V17.0481ZM24.9999 9.5481C24.9999 8.99581 24.5522 8.5481 23.9999 8.5481C23.4476 8.5481 22.9999 8.99581 22.9999 9.5481V12.0481H20.4999C19.9476 12.0481 19.4999 12.4958 19.4999 13.0481C19.4999 13.6004 19.9476 14.0481 20.4999 14.0481H22.9999V16.5481C22.9999 17.1004 23.4476 17.5481 23.9999 17.5481C24.5522 17.5481 24.9999 17.1004 24.9999 16.5481V14.0481H27.4999C28.0522 14.0481 28.4999 13.6004 28.4999 13.0481C28.4999 12.4958 28.0522 12.0481 27.4999 12.0481H24.9999V9.5481ZM25.0842 21.5671V20.0481H26.9999C28.8637 20.0481 30.4298 18.7733 30.8739 17.0481H32.0462V21.5671C32.0462 23.4896 30.4877 25.0481 28.5652 25.0481C26.6427 25.0481 25.0842 23.4896 25.0842 21.5671ZM34.2192 17.0481H38.846L39.8736 21.5475C40.2829 23.3399 38.9209 25.0481 37.0823 25.0481C35.5011 25.0481 34.2192 23.7662 34.2192 22.185V17.0481ZM23.9999 29.048H36.9999V39.048H23.9999V29.048ZM34.9999 31.048H25.9999V37.048H34.9999V31.048Z" fill="black"/>
</svg>

<svg
  xmlns="http://www.w3.org/2000/svg"
  width="24"
  height="24"
  viewBox="0 0 24 24"
  fill="none"
  stroke="currentColor"
  stroke-width="2"
  stroke-linecap="round"
  stroke-linejoin="round"
>
  <path
    fill-rule="evenodd"
    d="M6.172 21.102A4.86 4.86 0 0 0 8 26.081V42h4V29h8v13h20V26.077a4.86 4.86 0 0 0 1.823-4.976l-1.113-4.875a1.52 1.52 0 0 0-1.479-1.179H31v-5a4 4 0 0 0-4-4h-6a4 4 0 0 0-4 4v5H8.764c-.707 0-1.321.49-1.479 1.18zm1.95.445 1.027-4.499h4.627v5.137a2.863 2.863 0 1 1-5.654-.637m7.827-4.499h1.177c.444 1.725 2.01 3 3.874 3h1.911v1.52a3.481 3.481 0 0 1-6.962 0zm9.05-7.5a1 1 0 1 0-2 0v2.5h-2.5a1 1 0 1 0 0 2H23v2.5a1 1 0 1 0 2 0v-2.5h2.5a1 1 0 1 0 0-2H25zm.085 12.02v-1.52H27a4 4 0 0 0 3.874-3h1.172v4.52a3.481 3.481 0 0 1-6.962 0m9.135-4.52h4.627l1.028 4.5a2.863 2.863 0 1 1-5.655.637zm-10.22 12h13v10H24zm11 2h-9v6h9z"
    clip-rule="evenodd"
  />
</svg>
